X:1
T:Title
%%score ( 1 2 ) { 3 | 4 }
L:1/8
Q:1/4=108
M:3/4
K:D
V:1 treble nm="Bright Piano"
V:2 treble 
V:3 bass nm="Bright Piano"
V:4 bass 
V:1
 [A,D]2 [B,D]2 [CE]2 | [DF]4 D2 | G3 F [CG]2 | [DF]6 | [CE]2 [CF]2 [E^G]2 | [EA]2 [FB]2 [E^G]2 | %6
w: Samuel~Furer * *||||||
 [EA]6- | [EA]2 z2 [CE]2 | [CF]4 [DF]2 | [B,E]4 [CE]2 | [DG]4 [EG]2 | [DF]4 F2 | [GB]4 [GB]2 | %13
w: |||||||
 [FA]4 [FA]2 | d3 c [^Gd]2 | [Ac]6 | [Fd]2 [Ac]2 [GB]2 | A2 G2 [B,E]2 | [CF]6- | [CF]4 z2 | %20
w: |||||||
 [DA]2 D2 [EG]2 | [DF]4 [CE]2 | [A,D]6- | [A,D]4 z2 |] %24
w: ||||
V:2
 x6 | x6 | E4 z2 | x6 | x6 | x6 | x6 | x6 | x6 | x6 | x6 | x6 | x6 | x6 | F4 z2 | x6 | x6 | E4 z2 | %18
 x6 | x6 | x6 | x6 | x6 | x6 |] %24
V:3
 F,2 F,2 A,2 | A,4 B,2 | B,4 A,2 | A,6 | A,2 A,2 B,2 | A,2 D2 B,2 | C6- | C2 z2[K:bass] A,2 | %8
 A,4 A,2 | G,4 A,2 | B,4 B,2 | B,4[K:treble] C2 | D4 E2 | C4 D2 | D4 E2 | E6 | D2 F2 D2 | %17
 C2 B,2 B,2 | A,6- | A,4 z2 | A,2 B,2 B,2 | A,4 G,2 | F,6- | F,4 z2 |] %24
V:4
 D,2 B,,2 A,,2 | D,4 G,2 | E,4 z2 | D,6 | z2 F,2 E,2 | C,2 D,2 E,2 | A,,6- | A,,2 z2 z2 | F,4 D,2 | %9
 E,4 z2 | G,4 E,2 | z2 z2 A,2 | G,4 E,2 | F,4 D,2 | B,,4 E,2 | A,,6 | B,,2 F,2 G,2 | A,2 E,2 G,2 | %18
 F,6- | F,4 z2 | F,2 G,2 E,2 | z2 z2 A,,2 | D,6- | D,4 z2 |] %24

